public/brands/sailsjs-light.svg

<svg viewBox="0 0 206 74" xmlns="http://www.w3.org/2000/svg"><title>sailsLogoDark</title><g fill="none" fill-rule="evenodd"><path d="M21.896 50.189c-2.277-1.601-4.433-2.218-7.205-2.218-2.894 0-4.372 1.047-4.372 2.525 0 1.663 1.54 2.587 4.496 2.648 5.973.184 13.179 1.417 13.241 9.792.06 4.927-3.634 10.222-13.302 10.222-4.496 0-9.115-.862-14.287-5.173l3.816-6.282c3.757 3.08 7.391 3.757 10.593 3.819 2.587.062 4.62-.985 4.558-2.586 0-1.417-1.047-2.586-5.173-2.709-5.666-.247-12.747-2.588-12.747-9.731 0-6.898 6.526-9.791 13.117-9.791 4.68 0 8.436 1.169 11.639 3.941l-4.374 5.543M38.953 56.778c0 5.05 3.572 8.005 8.006 8.005 4.989 0 8.067-3.879 8.067-7.698 0-4.372-2.77-8.375-8.067-8.375-4.434 0-8.006 3.018-8.006 8.068zm16.382-15.211h8.313v30.422h-8.005l-.493-3.819c-2.033 3.202-6.405 4.435-9.361 4.496-9.113.062-15.703-5.85-15.703-15.888 0-10.101 6.959-16.012 15.95-15.889 3.818 0 7.39 1.478 8.99 4.187l.309-3.509zM69.621 71.989h8.868V41.505h-8.868v30.484zm9.483-38.49c0 6.652-10.099 6.652-10.099 0 0-6.651 10.099-6.651 10.099 0zM84.584 71.989h8.807V28.942h-8.807zM118.639 50.189c-2.279-1.601-4.434-2.218-7.205-2.218-2.895 0-4.372 1.047-4.372 2.525 0 1.663 1.539 2.587 4.495 2.648 5.972.184 13.178 1.417 13.24 9.792.061 4.927-3.633 10.222-13.302 10.222-4.495 0-9.114-.862-14.287-5.173l3.817-6.282c3.757 3.08 7.391 3.757 10.593 3.819 2.587.062 4.619-.985 4.558-2.586 0-1.417-1.047-2.586-5.173-2.709-5.667-.247-12.748-2.588-12.748-9.731 0-6.898 6.527-9.791 13.117-9.791 4.681 0 8.437 1.169 11.64 3.941l-4.373 5.543" fill="#FFF"/><path d="M139.27 73.52S111.326 29.053 168.811.42v73.1H139.27M177.711 73.52V28.212s9.175 14.973 27.821 45.308h-27.821" fill="#29A3B2"/></g></svg>

<?xml version="1.0" encoding="UTF-8"?>
<svg width="100%" height="100%" viewBox="0 0 206 74" version="1.1" xmlns="http://www.w3.org/2000/svg" xmlns:xlink="http://www.w3.org/1999/xlink">
    <!-- Generator: Sketch 40.3 (33839) - http://www.bohemiancoding.com/sketch -->
    <title>sailsLogoDark</title>
    <desc>Created with Sketch.</desc>
    <defs></defs>
    <g id="Page-1" stroke="none" stroke-width="1" fill="none" fill-rule="evenodd">
        <g id="sailsLogoDark">
            <path d="M21.896,50.189 C19.619,48.588 17.463,47.971 14.691,47.971 C11.797,47.971 10.319,49.018 10.319,50.496 C10.319,52.159 11.859,53.083 14.815,53.144 C20.788,53.328 27.994,54.561 28.056,62.936 C28.116,67.863 24.422,73.158 14.754,73.158 C10.258,73.158 5.639,72.296 0.467,67.985 L4.283,61.703 C8.04,64.783 11.674,65.46 14.876,65.522 C17.463,65.584 19.496,64.537 19.434,62.936 C19.434,61.519 18.387,60.35 14.261,60.227 C8.595,59.98 1.514,57.639 1.514,50.496 C1.514,43.598 8.04,40.705 14.631,40.705 C19.311,40.705 23.067,41.874 26.27,44.646 L21.896,50.189" id="Fill-2" fill="#FFFFFF"></path>
            <path d="M38.953,56.778 C38.953,61.828 42.525,64.783 46.959,64.783 C51.948,64.783 55.026,60.904 55.026,57.085 C55.026,52.713 52.256,48.71 46.959,48.71 C42.525,48.71 38.953,51.728 38.953,56.778 L38.953,56.778 Z M55.335,41.567 L63.648,41.567 L63.648,71.989 L55.643,71.989 L55.15,68.17 C53.117,71.372 48.745,72.605 45.789,72.666 C36.676,72.728 30.086,66.816 30.086,56.778 C30.086,46.677 37.045,40.766 46.036,40.889 C49.854,40.889 53.426,42.367 55.026,45.076 L55.335,41.567 L55.335,41.567 Z" id="Fill-3" fill="#FFFFFF"></path>
            <path d="M69.621,71.989 L78.489,71.989 L78.489,41.505 L69.621,41.505 L69.621,71.989 Z M79.104,33.499 C79.104,40.151 69.005,40.151 69.005,33.499 C69.005,26.848 79.104,26.848 79.104,33.499 L79.104,33.499 Z" id="Fill-4" fill="#FFFFFF"></path>
            <polygon id="Fill-5" fill="#FFFFFF" points="84.584 71.989 93.391 71.989 93.391 28.942 84.584 28.942"></polygon>
            <path d="M118.639,50.189 C116.36,48.588 114.205,47.971 111.434,47.971 C108.539,47.971 107.062,49.018 107.062,50.496 C107.062,52.159 108.601,53.083 111.557,53.144 C117.529,53.328 124.735,54.561 124.797,62.936 C124.858,67.863 121.164,73.158 111.495,73.158 C107,73.158 102.381,72.296 97.208,67.985 L101.025,61.703 C104.782,64.783 108.416,65.46 111.618,65.522 C114.205,65.584 116.237,64.537 116.176,62.936 C116.176,61.519 115.129,60.35 111.003,60.227 C105.336,59.98 98.255,57.639 98.255,50.496 C98.255,43.598 104.782,40.705 111.372,40.705 C116.053,40.705 119.809,41.874 123.012,44.646 L118.639,50.189" id="Fill-6" fill="#FFFFFF"></path>
            <path d="M139.27,73.52 C139.27,73.52 111.326,29.053 168.811,0.42 L168.811,73.52 L139.27,73.52" id="Fill-7" fill="#29A3B2"></path>
            <path d="M177.711,73.52 L177.711,28.212 C177.711,28.212 186.886,43.185 205.532,73.52 L177.711,73.52" id="Fill-8" fill="#29A3B2"></path>
        </g>
    </g>
</svg>
